static/assets/images/tokens/deusd.svg

<svg width="256" height="256" viewBox="0 0 256 256" fill="none" xmlns="http://www.w3.org/2000/svg">
<path d="M253.49 128C253.49 197.306 197.306 253.49 128 253.49C58.6942 253.49 2.50977 197.306 2.50977 128C2.50977 58.6942 58.6942 2.50977 128 2.50977C197.306 2.50977 253.49 58.6942 253.49 128Z" fill="white"/>
<path d="M52.3895 99.8576C36.6756 141.53 58.3491 188.616 100.612 203.767C102.237 204.851 103.862 207.015 103.862 208.639V216.216C103.862 217.299 103.862 217.84 103.321 218.381C102.779 220.545 100.612 221.627 98.4444 220.545C68.1009 210.803 44.8024 187.531 35.0493 157.225C18.7945 105.812 46.9709 51.1486 98.4444 34.9127C98.9865 34.373 100.07 34.373 100.612 34.373C102.779 34.9127 103.862 36.5365 103.862 38.7025V46.2783C103.862 48.9851 102.779 50.6077 100.612 51.6907C78.3974 59.8087 60.5175 77.1276 52.3895 99.8576Z" fill="url(#paint0_linear_9885_1344)"/>
<path d="M153.17 37.0786C153.71 34.9126 155.879 33.8309 158.046 34.9126C187.846 44.6544 211.687 67.9266 221.44 98.7746C237.696 150.189 209.52 204.851 158.046 221.087C157.504 221.627 156.421 221.627 155.879 221.627C153.71 221.087 152.627 219.464 152.627 217.299V209.722C152.627 207.015 153.71 205.391 155.879 204.309C178.093 196.191 195.973 178.874 204.101 156.142C219.815 114.47 198.141 67.3844 155.879 52.2328C154.253 51.1485 152.627 48.9851 152.627 46.8204V39.2433C152.627 38.1603 152.627 37.6194 153.17 37.0786Z" fill="url(#paint1_linear_9885_1344)"/>
<path fill-rule="evenodd" clip-rule="evenodd" d="M128 0C57.3076 0 0 57.3076 0 128C0 198.692 57.3076 256 128 256C198.692 256 256 198.692 256 128C256 57.3076 198.692 0 128 0ZM5.01961 128C5.01961 60.0797 60.0797 5.01961 128 5.01961C195.92 5.01961 250.98 60.0797 250.98 128C250.98 195.92 195.92 250.98 128 250.98C60.0797 250.98 5.01961 195.92 5.01961 128Z" fill="url(#paint2_linear_9885_1344)"/>
<path d="M91 153.253L109.484 140.234C113.57 146.318 118.628 150.047 124.724 151.551V137.813C122.13 137.028 119.99 136.374 118.368 135.785C116.335 135.061 114.324 134.276 112.337 133.43C107.603 131.467 105.074 129.897 101.702 126.953C96.7722 122.832 94.4382 117.467 94.1781 109.485C94.1781 104.449 95.6045 99.8695 98.5225 95.8138C101.377 91.7567 105.074 88.6165 109.678 86.3932C114.283 84.1686 119.277 82.8595 124.724 82.4673V72H133.221V82.5985C145.413 83.9718 155.142 90.3834 162.469 101.832L144.894 114.132C142.041 109.42 138.149 106.28 133.221 104.711V118.056C141.327 120.412 146.776 122.505 152.418 125.71C155.206 127.345 157.541 129.047 159.293 130.943C162.795 134.738 165 140.103 165 146.449C165 154.626 161.108 161.627 155.012 166.009C148.916 170.458 141.262 173.075 133.221 173.664V184H124.726V173.598C109.873 172.224 98.07 165.028 91 153.253ZM138.149 149.85C140.615 147.822 140.485 144.879 138.409 143.112C137.372 142.262 135.62 141.346 133.221 140.495V151.944C135.231 151.551 136.918 150.831 138.149 149.85ZM124.724 115.308V104.122C121.418 104.841 119.212 106.606 119.212 109.42C119.212 111.71 121.028 113.671 124.724 115.308Z" fill="url(#paint3_linear_9885_1344)"/>
<defs>
<linearGradient id="paint0_linear_9885_1344" x1="267.294" y1="-19.082" x2="143.872" y2="232.365" gradientUnits="userSpaceOnUse">
<stop stop-color="#FFE47C"/>
<stop offset="0.526" stop-color="#FF43C3"/>
<stop offset="1" stop-color="#4156E0"/>
</linearGradient>
<linearGradient id="paint1_linear_9885_1344" x1="267.294" y1="-19.0821" x2="143.872" y2="232.365" gradientUnits="userSpaceOnUse">
<stop stop-color="#FFE47C"/>
<stop offset="0.526" stop-color="#FF43C3"/>
<stop offset="1" stop-color="#4156E0"/>
</linearGradient>
<linearGradient id="paint2_linear_9885_1344" x1="267.294" y1="-19.082" x2="143.872" y2="232.365" gradientUnits="userSpaceOnUse">
<stop stop-color="#FFE47C"/>
<stop offset="0.526" stop-color="#FF43C3"/>
<stop offset="1" stop-color="#4156E0"/>
</linearGradient>
<linearGradient id="paint3_linear_9885_1344" x1="166.828" y1="66.2193" x2="92.0361" y2="157.524" gradientUnits="userSpaceOnUse">
<stop stop-color="#FFE47C"/>
<stop offset="0.526" stop-color="#FF43C3"/>
<stop offset="1" stop-color="#4156E0"/>
</linearGradient>
</defs>
</svg>

<svg xmlns="http://www.w3.org/2000/svg" fill="none" viewBox="0 0 256 256"><path fill="#fff" d="M253.49 128c0 69.306-56.184 125.49-125.49 125.49S2.51 197.306 2.51 128 58.694 2.51 128 2.51 253.49 58.694 253.49 128"/><path fill="url(#paint0_linear_9885_1344)" d="M52.39 99.858c-15.714 41.672 5.96 88.758 48.222 103.909 1.625 1.084 3.25 3.248 3.25 4.872v7.577c0 1.083 0 1.624-.541 2.165-.542 2.164-2.709 3.246-4.877 2.164-30.343-9.742-53.642-33.014-63.395-63.32C18.795 105.812 46.971 51.149 98.444 34.913c.543-.54 1.626-.54 2.168-.54 2.167.54 3.25 2.163 3.25 4.33v7.575c0 2.707-1.083 4.33-3.25 5.413-22.215 8.118-40.094 25.437-48.222 48.167"/><path fill="url(#paint1_linear_9885_1344)" d="M153.17 37.079c.54-2.166 2.709-3.248 4.876-2.166 29.8 9.741 53.641 33.014 63.394 63.862 16.256 51.414-11.92 106.076-63.394 122.312-.542.54-1.625.54-2.167.54-2.169-.54-3.252-2.163-3.252-4.328v-7.577c0-2.707 1.083-4.331 3.252-5.413 22.214-8.118 40.094-25.435 48.222-48.167 15.714-41.672-5.96-88.758-48.222-103.91-1.626-1.084-3.252-3.247-3.252-5.412v-7.577c0-1.083 0-1.624.543-2.164"/><path fill="url(#paint2_linear_9885_1344)" fill-rule="evenodd" d="M128 0C57.308 0 0 57.308 0 128s57.308 128 128 128 128-57.308 128-128S198.692 0 128 0M5.02 128C5.02 60.08 60.08 5.02 128 5.02S250.98 60.08 250.98 128 195.92 250.98 128 250.98 5.02 195.92 5.02 128" clip-rule="evenodd"/><path fill="url(#paint3_linear_9885_1344)" d="m91 153.253 18.484-13.019c4.086 6.084 9.144 9.813 15.24 11.317v-13.738c-2.594-.785-4.734-1.439-6.356-2.028a107 107 0 0 1-6.031-2.355c-4.734-1.963-7.263-3.533-10.635-6.477-4.93-4.121-7.264-9.486-7.524-17.468 0-5.036 1.427-9.615 4.344-13.671 2.855-4.057 6.552-7.197 11.156-9.42 4.605-2.225 9.599-3.535 15.046-3.927V72h8.497v10.599c12.192 1.373 21.921 7.784 29.248 19.233l-17.575 12.3q-4.28-7.068-11.673-9.421v13.345c8.106 2.356 13.555 4.449 19.197 7.654 2.788 1.635 5.123 3.337 6.875 5.233 3.502 3.795 5.707 9.16 5.707 15.506 0 8.177-3.892 15.178-9.988 19.56-6.096 4.449-13.75 7.066-21.791 7.655V184h-8.495v-10.402c-14.853-1.374-26.656-8.57-33.726-20.345m47.149-3.403c2.466-2.028 2.336-4.971.26-6.738-1.037-.85-2.789-1.766-5.188-2.617v11.449c2.01-.393 3.697-1.113 4.928-2.094m-13.425-34.542v-11.186c-3.306.719-5.512 2.484-5.512 5.298 0 2.29 1.816 4.251 5.512 5.888"/><defs><linearGradient id="paint0_linear_9885_1344" x1="267.294" x2="143.872" y1="-19.082" y2="232.365" gradientUnits="userSpaceOnUse"><stop stop-color="#FFE47C"/><stop offset=".526" stop-color="#FF43C3"/><stop offset="1" stop-color="#4156E0"/></linearGradient><linearGradient id="paint1_linear_9885_1344" x1="267.294" x2="143.872" y1="-19.082" y2="232.365" gradientUnits="userSpaceOnUse"><stop stop-color="#FFE47C"/><stop offset=".526" stop-color="#FF43C3"/><stop offset="1" stop-color="#4156E0"/></linearGradient><linearGradient id="paint2_linear_9885_1344" x1="267.294" x2="143.872" y1="-19.082" y2="232.365" gradientUnits="userSpaceOnUse"><stop stop-color="#FFE47C"/><stop offset=".526" stop-color="#FF43C3"/><stop offset="1" stop-color="#4156E0"/></linearGradient><linearGradient id="paint3_linear_9885_1344" x1="166.828" x2="92.036" y1="66.219" y2="157.524" gradientUnits="userSpaceOnUse"><stop stop-color="#FFE47C"/><stop offset=".526" stop-color="#FF43C3"/><stop offset="1" stop-color="#4156E0"/></linearGradient></defs></svg>
